svg/business/receive_money_fill.svg

<?xml version="1.0" encoding="UTF-8"?>
<svg width="24px" height="24px" viewBox="0 0 24 24" version="1.1" xmlns="http://www.w3.org/2000/svg" xmlns:xlink="http://www.w3.org/1999/xlink">
    <title>receive_money_fill</title>
    <g id="Icon" stroke="none" stroke-width="1" fill="none" fill-rule="evenodd">
        <g id="Business" transform="translate(-336.000000, -240.000000)">
            <g id="receive_money_fill" transform="translate(336.000000, 240.000000)">
                <path d="M24,0 L24,24 L0,24 L0,0 L24,0 Z M12.5934901,23.257841 L12.5819402,23.2595131 L12.5108777,23.2950439 L12.4918791,23.2987469 L12.4918791,23.2987469 L12.4767152,23.2950439 L12.4056548,23.2595131 C12.3958229,23.2563662 12.3870493,23.2590235 12.3821421,23.2649074 L12.3780323,23.275831 L12.360941,23.7031097 L12.3658947,23.7234994 L12.3769048,23.7357139 L12.4804777,23.8096931 L12.4953491,23.8136134 L12.4953491,23.8136134 L12.5071152,23.8096931 L12.6106902,23.7357139 L12.6232938,23.7196733 L12.6232938,23.7196733 L12.6266527,23.7031097 L12.609561,23.275831 C12.6075724,23.2657013 12.6010112,23.2592993 12.5934901,23.257841 L12.5934901,23.257841 Z M12.8583906,23.1452862 L12.8445485,23.1473072 L12.6598443,23.2396597 L12.6498822,23.2499052 L12.6498822,23.2499052 L12.6471943,23.2611114 L12.6650943,23.6906389 L12.6699349,23.7034178 L12.6699349,23.7034178 L12.678386,23.7104931 L12.8793402,23.8032389 C12.8914285,23.8068999 12.9022333,23.8029875 12.9078286,23.7952264 L12.9118235,23.7811639 L12.8776777,23.1665331 C12.8752882,23.1545897 12.8674102,23.1470016 12.8583906,23.1452862 L12.8583906,23.1452862 Z M12.1430473,23.1473072 C12.1332178,23.1423925 12.1221763,23.1452606 12.1156365,23.1525954 L12.1099173,23.1665331 L12.0757714,23.7811639 C12.0751323,23.7926639 12.0828099,23.8018602 12.0926481,23.8045676 L12.108256,23.8032389 L12.3092106,23.7104931 L12.3186497,23.7024347 L12.3186497,23.7024347 L12.3225043,23.6906389 L12.340401,23.2611114 L12.337245,23.2485176 L12.337245,23.2485176 L12.3277531,23.2396597 L12.1430473,23.1473072 Z" id="MingCute" fill-rule="nonzero"></path>
                <path d="M4.00003,16.9997 L4.00003,5 C4.00003,3.34315 5.34317,2 7.00003,2 L17,2 C18.6569,2 20,3.34315 20,5 L20,16.9997 C20.4049,16.9998 20.7858,17.2475 20.9364,17.6489 C21.1303,18.166 20.8683,18.7424 20.3512,18.9363 L12.3512,21.9363 C12.1248,22.0212 11.8753,22.0212 11.6489,21.9363 L3.6489,18.9363 C3.13178,18.7424 2.86978,18.166 3.0637,17.6489 C3.21422,17.2475 3.5952,16.9998 4.00003,16.9997 Z M13,6 C13,5.44772 12.5523,5 12,5 C11.4477,5 11,5.44772 11,6 L11,7 L10,7 C8.61929,7 7.5,8.11929 7.5,9.5 C7.5,10.8807 8.61929,12 10,12 L14,12 C14.2761,12 14.5,12.2239 14.5,12.5 C14.5,12.7761 14.2761,13 14,13 L9,13 C8.44772,13 8,13.4477 8,14 C8,14.5523 8.44772,15 9,15 L11,15 L11,16 C11,16.5523 11.4477,17 12,17 C12.5523,17 13,16.5523 13,16 L13,15 L14,15 C15.3807,15 16.5,13.8807 16.5,12.5 C16.5,11.1193 15.3807,10 14,10 L10,10 C9.72386,10 9.5,9.77614 9.5,9.5 C9.5,9.22386 9.72386,9 10,9 L15,9 C15.5523,9 16,8.55228 16,8 C16,7.44772 15.5523,7 15,7 L13,7 L13,6 Z" id="形状" fill="#09244B"></path>
            </g>
        </g>
    </g>
</svg>

<svg xmlns="http://www.w3.org/2000/svg" width="24" height="24"><g fill="none" fill-rule="evenodd"><path d="M24 0v24H0V0zM12.593 23.258l-.011.002-.071.035-.02.004-.014-.004-.071-.035c-.01-.004-.019-.001-.024.005l-.004.01-.017.428.005.02.01.013.104.074.015.004.012-.004.104-.074.012-.016.004-.017-.017-.427c-.002-.01-.009-.017-.017-.018m.265-.113-.013.002-.185.093-.01.01-.003.011.018.43.005.012.008.007.201.093c.012.004.023 0 .029-.008l.004-.014-.034-.614c-.003-.012-.01-.02-.02-.022m-.715.002a.023.023 0 0 0-.027.006l-.006.014-.034.614c0 .012.007.02.017.024l.015-.002.201-.093.01-.008.004-.011.017-.43-.003-.012-.01-.01z"/><path fill="#09244B" d="M4 17V5a3 3 0 0 1 3-3h10a3 3 0 0 1 3 3v12a1 1 0 0 1 .351 1.936l-8 3a1 1 0 0 1-.702 0l-8-3A1 1 0 0 1 4 17m9-11a1 1 0 1 0-2 0v1h-1a2.5 2.5 0 0 0 0 5h4a.5.5 0 0 1 0 1H9a1 1 0 1 0 0 2h2v1a1 1 0 1 0 2 0v-1h1a2.5 2.5 0 0 0 0-5h-4a.5.5 0 0 1 0-1h5a1 1 0 1 0 0-2h-2z"/></g></svg>
